X:1
T:[ID 2-4]
T:[ID 2-4]
T:Bezeichnung standardisiert: Menuet Con Trio Menuet Con Trio
T:Urheber unbekannt Erstbeleg: 1767 (Datum in der schriftlichen Quelle) Datum in der hier transkribierten schriftlichen Quelle: vermutlich um 1800
C:Urheber unbekannt
C:Erstbeleg: 1767 (Datum in der schriftlichen Quelle)
C:Datum in der hier transkribierten schriftlichen Quelle: vermutlich um 1800
L:1/8
M:3/4
K:A
V:1 treble 
V:1
 c4 fc | cB c4 | B2 A2 G2 | ACDB, C2 | c4 c2 | ec d4 | e2 dcdB | c6 :: c2 A2 cA | B2 G2 B2 | %10
 AcBAGF | EFGE C2 | c2 AcBA | B2 GBAG | A2 DCDB, | C6 :|[M:3/4]"^Trio" !fermata!A4 (3EDC | %17
 c2 c2 c2 | A4 (3EDC | c2 c2 c2 | A4 (3EDC | d2 d2 c2 | B2 dcBA | G6 :: G2 G2 A2 | c2 c2 B2 | %26
 A2 c2 B2 | A6 | c4 d2 | cedcBA | G2 CB,CA, | C6 :| %32

